!!!ONB: MCCC : IFC0111_00 : Extracted Monophonic Melody
!!!COM: Chopin, Frédéric
!!!OTL: Waltz in A minor
!!!SCT: B.150 ; CT 224
!!!ODT: 1843///
**kern
*thru
*staff1
*Ipiano
=1
*clefG2
*k[b-e-a-d-g-]
*b-:
*M3/4
*MM300
2B-
12A
12B-
12d-
=2
4f
4r
12A
12B-
12d-
=3
4f
4r
4r
=4
2.r
=5
4B-
4r
4r
=6
2.bb-[
=7
2.bb-]
=8
4.ee-
8ff
4gg-
=9
4ff
4r
12A
12B-
12d-
=10
4f
4r
12A
12B-
12d-
=11
4f
4r
4r
=12
2.r
=13
4A-
4r
4r
=14
2.aa-[
=15
2.aa-]
=16
4.ee-
8ff
4gg-
=17
4ff
4r
4r
=18
2ff
4r
=19
2f
4r
=20
2.r
=21
2.r
=22
2.r
=23
2.r
=24
2.r
=25
4r
4r
12A
12B-
12d-
=26
4f
4r
12A
12B-
12d-
=27
4f
4r
4r
=28
2.r
=29
4B-
4r
4r
=30
2.bb-[
=31
4.bb-]
8ee-
4ee-
=32
4.ee-
8ff
4gg-
=33
4ff
4r
12A
12B-
12d-
=34
4f
4r
12A
12B-
12d-
=35
4f
4r
4r
=36
2.r
=37
4C
4r
4r
=38
2.ccc[
=39
2.ccc]
=40
4.gg
8aa-
4bb-
=41
4aa-
4r
4r
=42
2aa-
4r
=43
2a-
4r
=44
2.r
=45
2.r
=46
2.r
=47
2.r
=48
2.r
=49
[2.fff
=50
4fff]
8eee-
8ddd-
8aa-
8ff
=51
8eee-
8ddd-
8aa-
8ff
8ee-
8dd-
=52
4a-
4r
4r
=53
8cc
8dd-
8ee-
8ff
8gg-
8aa-
=54
8bb--
8r
4r
4r
=55
8bb--
8aa-
8gg
8gg-
8ff
8ff-
=56
8ee-
8r
4r
4r
=57
[2.fff
=58
4fff]
8eee-
8ddd-
8aa-
8ff
=59
8eee-
8ddd-
8aa-
8ff
8ee-
8dd-
=60
4a-
4r
4r
=61
8cc
8dd-
8ee-
8ff
8gg-
8aa-
=62
8bb--
8r
4r
4r
=63
8bb--
8aa-
8gg
8gg-
8ff
8ff-
=64
8ee-
8r
4r
4r
=65
[2.ff
=66
4ff]
4.ee-
8dd-
=67
2.dd-
=68
[2.gg-
=69
2gg-_
4gg-]
=70
4ff
4ee-
4dd-
=71
2.bb-
=72
2bb-
4bb-
=73
[2bb-
4bb-_
=74
4bb-]
4.ff
8ee-
=75
2.ee-
=76
[2.aa-
=77
4aa-_
4aa-]
4ff
=78
4gg
4.ff
8ee-
=79
[2.ccc
=80
2ccc]
4ccc
=81
[2.ccc
=82
4ccc]
4.bb-
8aa-
=83
2.aa-
=84
2.ddd-
=85
2ddd-
4ccc
=86
4ccc
4.bb-
8aa-
=87
2.fff
=88
2fff
4fff
=89
2.fff
=90
4eee-
4ddd-
4bb-
=91
2.ccc
=92
4bb-
4aa-
4ff
=93
4bb-
4aa-
4gg-
=94
4gg-
4.ff
8ee
=95
2.ee
=96
2ff
[4aa-
=97
2.aa-]
=98
4ccc
4.bb-
8aa-
=99
2.aa-
=100
2.ddd-
=101
[2ddd-
4ddd-]
=102
4.ccc
8bb-
4aa-
=103
2.fff
=104
2fff
4fff
=105
2.fff
=106
4eee-
4.ddd-
8bb-
=107
2.ccc
=108
4bb-
4aa-
4bb-
=109
2ccc-
4bb-
=110
[2.ccc-
=111
2ccc-]
4bb-
=112
4ccc-
4bb-
4ccc-
=113
2ccc-
4bb-
=114
[2.bb-
=115
4.bb-]
8ccc
4ccc
=116
4.ccc
8fff
4eee-
=117
4ddd-
4r
4r
=118
8f
8dd-
8aa-
8f
8dd-
8bb-
=119
4aa-
4r
4r
=120
8g-
8cc
8aa-
8g-
8cc
8aa-
=121
4ff
4r
4r
=122
8f
8dd-
8aa-
8f
8dd-
8bb-
=123
4aa-
4r
4r
=124
8g-
8cc
8aa-
8g-
8cc
8aa-
=125
4ff
4r
4r
=126
8f
8dd-
8aa-
8f
8dd-
8aa-
=127
8ddd-
8ff
8aa-
8dd-
8f
8a-
=128
2.r
=129
2.r
=130
2.ddd-
=131
2.r
=132
2.r
=133
4r
4r
12A
12B-
12d-
=134
4f
4r
12A
12B-
12d-
=135
4f
4r
4r
=136
2.r
=137
4B-
4r
4r
=138
2.bb-[
=139
2.bb-]
=140
4.ee-
8ff
4gg-
=141
4ff
4r
12A
12B-
12d-
=142
4f
4r
12A
12B-
12d-
=143
4f
4r
4r
=144
2.r
=145
4A-
4r
4r
=146
2.aa-[
=147
2.aa-]
=148
10.ee-
10.ee
10.ff
10.aa-
10.gg-
=149
4ff
4r
4r
=150
2ff
4r
=151
2f
4r
=152
2.r
=153
2.r
=154
2.r
=155
2.r
=156
2.r
=157
4r
4r
12A
12B-
12d-
=158
4f
4r
12A
12B-
12d-
=159
4f
4r
4r
=160
2.r
=161
4B-
4r
4r
=162
2.bb-[
=163
4.bb-]
8ee-
4ee-
=164
4.ee-
8ff
4gg-
=165
4ff
4r
12A
12B-
12d-
=166
4f
4r
12A
12B-
12d-
=167
4f
4r
4r
=168
2.r
=169
4C
4r
4r
=170
2.ccc[
=171
2.ccc]
=172
8.ddd-
8.ccc
8.ff
8.gg
=173
4aa-
4r
4r
=174
2aa-
4r
=175
2a-
4r
=176
2.r
=177
2.r
=178
2.FF
=179
2.EE-[
=180
2.EE-]
=181
[2.fff
=182
4fff]
8eee-
8ddd-
8aa-
8ff
=183
8eee-
8ddd-
8aa-
8ff
8ee-
8dd-
=184
4a-
4r
4r
=185
8cc
8dd-
8ee-
8ff
8gg-
8aa-
=186
8bb--
8r
4r
4r
=187
8bb--
8aa-
8gg
8gg-
8ff
8ff-
=188
8ee-
8r
4r
4r
=189
[2.fff
=190
4fff]
8eee-
8ddd-
8aa-
8ff
=191
8eee-
8ddd-
8aa-
8ff
8ee-
8dd-
=192
4a-
4r
4r
=193
8cc
8dd-
8ee-
8ff
8gg-
8aa-
=194
8bb--
8r
4r
4r
=195
8bb--
8aa-
8gg
8gg-
8ff
8ff-
=196
8ee-
8r
4r
4r
=197
[2.ff
=198
4ff]
4.ee-
8dd-
=199
2.dd-
=200
[2.gg-
=201
2gg-]
4ff
=202
4ff
4ee-
4dd-
=203
2.bb-
=204
2bb-
4bb-
=205
[2bb-
4bb-_
=206
4bb-]
4.ff
8ee-
=207
2.ee-
=208
[2.aa-
=209
4aa-_
4aa-]
4ff
=210
4gg
4.ff
8ee-
=211
[2.ccc
=212
2ccc]
4ccc
=213
[2.ccc
=214
4ccc]
4.bb-
8aa-
=215
2.aa-
=216
2.ddd-
=217
2ddd-
4ccc
=218
4ccc
4.bb-
8aa-
=219
2.fff
=220
2fff
4fff
=221
2.fff
=222
4eee-
4ddd-
4bb-
=223
2.ccc
=224
4bb-
4aa-
4ff
=225
4bb-
4aa-
4gg-
=226
4gg-
4.ff
8ee
=227
2.ee
=228
2ff
[4aa-
=229
2.aa-]
=230
4ccc
4.bb-
8aa-
=231
2.aa-
=232
2.ddd-
=233
4.ddd-
8ccc
4ccc
=234
4.ccc
8bb-
4aa-
=235
2.fff
=236
2fff
4fff
=237
2.fff
=238
4eee-
4.ddd-
8bb-
=239
2.ccc
=240
4bb-
4aa-
4bb-
=241
2ccc-
4bb-
=242
[2.ccc-
=243
2ccc-]
4bb-
=244
4ccc-
4bb-
4ccc-
=245
2ccc-
4bb-
=246
[2.bb-
=247
4.bb-]
8ccc
4ccc
=248
4.ccc
8fff
4eee-
=249
4ddd-
4r
4r
=250
8f
8dd-
8aa-
8f
8dd-
8bb-
=251
4aa-
4r
4r
=252
8g-
8cc
8aa-
8g-
8cc
8aa-
=253
4ff
4r
4r
=254
8f
8dd-
8aa-
8f
8dd-
8bb-
=255
4aa-
4r
4r
=256
8g-
8cc
8aa-
8g-
8cc
8aa-
=257
4ff
4r
4r
=258
8f
8dd-
8aa-
8f
8dd-
8aa-
=259
8ddd-
8ff
8aa-
8dd-
8f
8a-
=260
2.r
=261
2.r
=262
2.ddd-
=263
2.r
=264
2.r
=265
*k[f#c#g#]
2.e
=266
2.f#
=267
2.f#[
=268
2.f#]
=269
2.e
=270
2.f#
=271
2.f#[
=272
2.f#]
=273
2.e[
=274
2.e]
=275
[2.c#
=276
2.c#]
=277
2.cc#
=278
4.b
8a
4b
=279
4.cc#
8dd
4cc#
=280
4.b
8a
4b
=281
8cc#
8c#
8cc#
8g#
8cc#
8g#
=282
8gg#
8cc#
8gg#
8cc#
8ccc#
8gg#
=283
8cc#
8g#
8gg#
8cc#
8gg#
8cc#
=284
8ccc#
8r
4r
4r
=285
2.e
=286
2.f#
=287
2.f#[
=288
2.f#]
=289
2.e
=290
2.f#
=291
2.f#[
=292
2.f#]
=293
4a
4f#
4d
=294
2.e[
=295
2.e]
=296
[2.c#
=297
2.c#]
=298
2.r
=299
2.cc#
=300
2.cc#[
=301
8cc#]
8dd#
8ff#
8ee
8cc#
8a
=302
2.gg#
=303
4.ff#
8ee
4ff#
=304
4.gg#
8aa
4gg#
=305
4.ff#
8ee
4ff#
=306
[2.gg#
=307
4gg#_
8gg#]
8g#
8gg#
8dd
=308
8gg#
8dd#
8ddd#
8gg#
8ddd#
8gg#
=309
8ggg#
8r
4gg#
4ff#
=310
2.ee
=311
4ee
4ee
4dd#
=312
4cc#
8f##
8g#
12b
12a
12g#
=313
2.g#
=314
2.ee[
=315
4ee]
4ee
4dd#
=316
4cc#
8b#
8cc#
12ee
12dd
12cc#
=317
2.cc#
=318
2.aa
=319
4aa
4aa
4gg#
=320
4ff#
8b#
8cc#
12ee
12dd
12cc#
=321
2.cc#
=322
[2.aa
=323
4aa_
4aa]
4gg#
=324
2.ff#[
=325
4ff#]
4gg#
4aa
=326
4gg#
8f##
8g#
12b
12a
12g#
=327
2.g#
=328
2.dd#
=329
4dd#
4dd#
4cc#
=330
4b#
8f##
8g#
12b
12a
12g#
=331
2.g#
=332
4dd#
8a#
8b
12dd#
12cc#
12b
=333
2.b
=334
8g#
8b
8ee
8gg#
8ff#
8ee
=335
8gg#
8bb
8eee
8ggg#
8fff#
8eee
=336
8bb
8gg#
8ff#
8ee
8b
8g#
=337
8f#
8e
8B
8g#
8f#
8e
=338
8c#
8e
8f#
8a
8cc#
8ee
=339
8ff#
8aa
8ccc#
8eee
8fff#
8aaa
=340
8ggg#
8fff#
8ddd#
8aa
8gg#
8ff#
=341
8dd#
8b
8dd#
8cc#
8b
8a
=342
8g#
8b
8ee
8gg#
8ff#
8ee
=343
8gg#
8bb
8eee
8ggg#
8fff#
8eee
=344
8bb
8gg#
8ff#
8ee
8b
8g#
=345
8f#
8e
8B
8g#
8f#
8e
=346
8c#
8e
8f#
8a
8cc#
8ee
=347
8ff#
8aa
8ccc#
8eee
8fff#
8aaa
=348
8ggg#
8fff#
8ddd#
8aa
8gg#
8ff#
=349
8dd#
8b
8dd#
8cc#
8b
8a
=350
8g#
8b
8ee
8gg#
8ff#
8ee
=351
8gg#
8bb
8eee
8ggg#
8fff#
8eee
=352
8ccc
8aa
8ff#
8ee
8cc
8a
=353
8f#
8e
8c
8A
8F#
8E
=354
8G#
8B
8e
8g#
8f#
8e
=355
8g#
8b
8ee
8gg#
8ff#
8ee
=356
8cc
8a
8f#
8e
8c
8A
=357
8F#
8E
8C
8AA
8FF#
8EE
=358
4r
8BB
8E
8A
8G#
=359
8B
8e
8a
8g#
8b
8ee
=360
8aa
8gg#
8bb
8eee
8aaa
8ggg#
=361
8eee
8bb
8aa
8gg#
8ee
8b
=362
8a
8g#
8e
8B
8A
8G#
=363
8E
8BB
8AA
8GG#
8EE
8BBB
=364
2.r
=365
2.r
=366
2.e
=367
2.f#
=368
2.f#[
=369
2.f#]
=370
2.e
=371
2.f#
=372
2.f#[
=373
2.f#]
=374
4a
2f#
=375
2.e[
=376
2.e]
=377
[2.c#
=378
2.c#]
=379
2.cc#
=380
4.b
8a
4b
=381
4.cc#
8dd
4cc#
=382
4.b
8a
4b
=383
8cc#
8c#
8cc#
8g#
8cc#
8g#
=384
8gg#
8cc#
8gg#
8cc#
8ccc#
8gg#
=385
8cc#
8g#
8gg#
8cc#
8gg#
8cc#
=386
8ccc#
8r
4r
4r
=387
2.e
=388
2.f#
=389
2.f#[
=390
2.f#]
=391
2.e
=392
2.f#
=393
2.f#[
=394
2.f#]
=395
8a
8g#
8b
8a
8f#
8d
=396
2.e[
=397
2.e]
=398
[2.c#
=399
2.c#]
=400
2.r
=401
2.cc#
=402
2.cc#[
=403
8cc#]
8dd#
8ff#
8ee
8cc#
8a
=404
2.gg#
=405
4.ff#
8ee
4ff#
=406
4.gg#
8aa
4gg#
=407
4.ff#
8ee
4ff#
=408
[2.gg#
=409
4gg#_
8gg#]
8g#
8gg#
8dd#
=410
8gg#
8dd
8ddd
8gg#
8ddd
8gg#
=411
8ggg#
8r
4gg#
4ff#
=412
2.ee
=413
4ee
4ee
4dd#
=414
4cc#
8f##
8g#
12b
12a
12g#
=415
2.g#
=416
2.ee[
=417
4ee]
4ee
4dd#
=418
4cc#
8b#
8cc#
12ee
12dd
12cc#
=419
2.cc#
=420
[2.aa
=421
4aa_
4aa]
4gg#
=422
4ff#
8b#
8cc#
12ee
12dd
12cc#
=423
2.cc#
=424
[2.aa
=425
4aa_
4aa]
4gg#
=426
2.ff#
=427
4ff#
4gg#
4aa
=428
4gg#
8f##
8g#
12b
12a
12g#
=429
2.g#
=430
2.dd#
=431
4dd#
4dd#
4cc#
=432
4b#
8f##
8g#
12b
12a
12g#
=433
2.g#
=434
4dd#
8a#
8b
12dd#
12cc#
12b
=435
2.b
=436
8g#
8b
8ee
8gg#
8ff#
8ee
=437
8gg#
8bb
8eee
8ggg#
8fff#
8eee
=438
8bb
8gg#
8ff#
8ee
8b
8g#
=439
8f#
8e
8B
8g#
8f#
8e
=440
8c#
8e
8f#
8a
8cc#
8ee
=441
8ff#
8aa
8ccc#
8eee
8fff#
8aaa
=442
8ggg#
8fff#
8ddd#
8aa
8gg#
8ff#
=443
8dd#
8b
8dd#
8cc#
8b
8a
=444
8g#
8b
8ee
8gg#
8ff#
8ee
=445
8gg#
8bb
8eee
8ggg#
8fff#
8eee
=446
8bb
8gg#
8ff#
8ee
8b
8g#
=447
8f#
8e
8B
8g#
8f#
8e
=448
8c#
8e
8f#
8a
8cc#
8ee
=449
8ff#
8aa
8ccc#
8eee
8fff#
8aaa
=450
8ggg#
8fff#
8ddd#
8aa
8gg#
8ff#
=451
8dd#
8b
8dd#
8cc#
8b
8a
=452
8g#
8b
8ee
8gg#
8ff#
8ee
=453
8gg#
8bb
8eee
8ggg#
8fff#
8eee
=454
8ccc
8aa
8ff#
8ee
8cc
8a
=455
8f#
8e
8c
8A
8F#
8E
=456
8G#
8B
8e
8g#
8f#
8e
=457
8g#
8b
8ee
8gg#
8ff#
8ee
=458
8cc
8a
8f#
8e
8c
8A
=459
8F#
8E
8C
8AA
8FF#
8EE
=460
8BB
8E
8A
8G#
4r
=461
8B
8e
8a
8g#
8b
8ee
=462
8aa
8gg#
8bb
8eee
8aaa
8ggg#
=463
8eee
8bb
8aa
8gg#
8ee
8b
=464
8a
8g#
8e
8B
8A
8G#
=465
8E
8BB
8AA
8GG#
8EE
8BBB
=466
2.r
=467
2.r
=468
4r
8BB
8F
8A
8G#
=469
8B
8f
8a
8g#
8b
8ff
=470
8aa
8gg#
8bb
8fff
8aaa
8ggg#
=471
8fff
8bb
8aa
8gg#
8ff
8b
=472
8a
8g#
8f
8B
8A
8G#
=473
8F
8BB
8AA
8GG#
8FF
8BBB
=474
2.r
=475
2.r
=476
4r
8a#
8g#
8b
8ee#
=477
8aa#
8gg#
8bb
8eee#
8aaa#
8ggg#
=478
8aa#
8eee
8ggg#
8fff##
8eee
8aa#
=479
8gg#
8ff##
8ee
8a#
8g#
8f##
=480
8A
8d#
8g#
8f#
8a
8dd#
=481
8gg#
8ff#
8aa
8ddd#
8ggg#
8fff#
=482
8gg#
8ccc#
8fff#
8eee#
8ccc#
8gg#
=483
8ff#
8ee#
8cc#
8g#
8f#
8e#
=484
8c
8f#
8b
8a
8cc
8ff#
=485
8bb
8aa
8cc
8ff#
8bb
8aa
=486
8b
8ff
8aa
8gg#
8ff
8b
=487
8aa
8gg#
8ff
8b
8a
8g#
=488
8B-
8e
8a
8g
8b-
8ee
=489
8aa
8gg
8b-
8ee
8aa
8gg
=490
8a
8dd
8gg
8ff#
8dd
8a
=491
8gg
8ff#
8dd
8a
8g
8f#
=492
4dd
8cc#
8dd
12ff
12ee-
12dd
=493
2.dd
=494
4bb-
8cc#
8dd
12ff
12ee-
12dd
=495
2.dd
=496
4gg
8cc#
8dd
12ff
12ee-
12dd
=497
2.dd
=498
4bb-
8f#
8g
12b-
12a-
12g
=499
2.g
=500
4ee-
8ff#
8gg
12bb-
12aa-
12gg
=501
2.gg
=502
4eee-
8ff#
8gg
12bb-
12aa-
12gg
=503
2.gg#
=504
4ccc
8f#
8g
12b-
12a-
12g
=505
2.g
=506
4ee-
8d
8e-
12g
12f
12e-
=507
2.e-
=508
4cc-
8dd
8ee-
12gg-
12ff-
12ee-
=509
2.ee-
=510
4ccc-
8dd
8ee-
12gg-
12ff-
12ee-
=511
2.ee-
=512
4aa-
8dd
8ee-
12gg-
12ff-
12ee-
=513
2.ee-
=514
4ccc-
8dd
8ee-
12gg-
12ff-
12ee-
=515
2.ee-
=516
4aa-
4r
4r
=517
4ggg#
8fff#
8eee
8bb
8gg#
=518
8ff#
8ee
8b
8g#
8f#
8e
=519
4B
4r
4r
=520
8dd#
8ee
8ff#
8gg#
8aa
8bb
=521
4ccc
4r
4r
=522
8ccc
8bb
8aa
8gg#
8ff#
8ee
=523
4dd#
4r
4r
=524
[2.ggg#
=525
4ggg#]
8fff#
8eee
8bb
8gg#
=526
8ff#
8ee
8b
8g#
8f#
8e
=527
4B
4r
4r
=528
8ee#
8ff#
8gg#
8aa
8bb
8ccc#
=529
4ddd
4r
4r
=530
8ddd
8ccc#
8bb
8aa
8gg#
8ff#
=531
4ee#
4r
4r
=532
8ff##
8gg#
8aa#
8bb
8ccc#
8ddd#
=533
4eee
4r
4r
=534
8eee
8ddd#
8ccc#
8bb
8aa#
8gg#
=535
*k[b-e-a-d-g-]
4gg
4r
4r
=536
8a
8b-
8cc
8dd-
8ee-
8ff
=537
8gg-
8eee-
8gg-
8ff
8ee-
8dd-
=538
8cc
8dd-
8dd
8ee-
8ee
8ff
=539
8gg-
8eee-
8gg-
8ff
8ee-
8dd-
=540
8cc
8r
8fff
8eee
8eee-
8ccc
=541
4aa
4r
8ff
8ee
=542
8ee-
8cc
4a
4r
=543
8F
8E
8E-
8C
4r
=544
4ddd-
8ee
8ff
12aa-
12gg-
12ff
=545
4ff
4eee
4fff
=546
4bb-
8cc
8dd-
12ff
12ee-
12dd-
=547
4dd-
4ccc
4ddd-
=548
4gg-
8a
8b-
12dd-
12cc
12b-
=549
4b-
4aa
4bb-
=550
4ee-
8f
8g-
12b-
12a-
12g-
=551
2.g-
=552
4ff
8e
8f
12a-
12g-
12f
=553
4f
4eee-
4ddd-
=554
4ccc
8e
8f
12a-
12g-
12f
=555
4f
4ccc
4bb-
=556
4aa
8e
8f
12a-
12g-
12f
=557
4f
4eee-
4ddd-
=558
4ccc
8e
8f
12a-
12g-
12f
=559
4f
4ccc
4bb-
=560
4aa
8e
8f
12a-
12g-
12f
=561
4f
4ddd-
4ccc
=562
4aa
8B
8c
12e-
12d-
12c
=563
4c
4b-
4a
=564
4aa
8e
8f
12a-
12g-
12f
=565
4f
4ddd-
4ccc
=566
4aa
8B
8c
12e-
12d-
12c
=567
4c
4b-
4a
=568
4aa
8B
8c
12e-
12d-
12c
=569
4c
4b-
4a
=570
4aa
8B
8c
12e-
12d-
12c
=571
4c
4b-
4a
=572
4aa
8BB
8C
12E-
12D-
12C
=573
4C
4B-
4A
=574
4F
8BB
8C
12E-
12D-
12C
=575
4C
4B-
4A
=576
4F
4r
4r
=577
2.r
=578
4r
8BB
8C
12E-
12D-
12C
=579
4C
4B-
4A
=580
4F
4r
4r
=581
4r
4BB-
4AA
=582
2.FF
=583
2.r
=584
4r
4r
12A
12B-
12d-
=585
4f
4r
12A
12B-
12d-
=586
2.f[
=587
2.f]
=588
4B-
4r
4r
=589
2.bb-[
=590
2.bb-]
=591
4.ee-
8ff
4gg-
=592
4ff
4r
12A
12B-
12d-
=593
4f
4r
12A
12B-
12d-
=594
2.f[
=595
2.f]
=596
4A-
4r
4r
=597
2.aa-[
=598
2.aa-]
=599
4.ee-
8ff
4gg-
=600
4ff
4r
4r
=601
2ff
4r
=602
2f
4r
=603
2.r
=604
2.r
=605
2.r
=606
2.r
=607
2.r
=608
4r
4r
12A
12B-
12d-
=609
4f
4r
12A
12B-
12d-
=610
2.f[
=611
2.f]
=612
4B-
4r
4r
=613
2.bb-[
=614
4.bb-]
8ee-
4ee-
=615
4.ee-
8ff
4gg-
=616
4ff
4r
12A
12B-
12d-
=617
4f
4r
12A
12B-
12d-
=618
2.f[
=619
2.f]
=620
4C
4r
4r
=621
2.ccc[
=622
2.ccc]
=623
4.gg
8aa-
4bb-
=624
4aa-
4r
4r
=625
2aa-
4r
=626
2a-
4r
=627
2.r
=628
2.r
=629
2.FF
=630
2.EE[
=631
2.EE]
=632
[2.fff
=633
4fff]
8eee-
8ddd-
8aa-
8ff
=634
8eee-
8ddd-
8aa-
8ff
8ee-
8dd-
=635
4a-
4r
4r
=636
8cc
8dd-
8ee-
8ff
8gg-
8aa-
=637
8bb--
8r
4r
4r
=638
8bb--
8aa-
8gg
8gg-
8ff
8ff-
=639
8ee-
8r
4r
4r
=640
[2.fff
=641
4fff]
8eee-
8ddd-
8aa-
8ff
=642
8eee-
8ddd-
8aa-
8ff
8ee-
8dd-
=643
4a-
4r
4r
=644
8cc
8dd-
8ee-
8ff
8gg-
8aa-
=645
8bb--
8r
4r
4r
=646
8bb--
8aa-
8gg
8gg-
8ff
8ff-
=647
8ee-
8r
4r
4r
=648
[2.ff
=649
4ff]
4.ee-
8dd-
=650
2.dd-
=651
[2.gg-
=652
2gg-_
4gg-]
=653
4ff
4ee-
4dd-
=654
2.bb-
=655
2bb-
4bb-
=656
[2bb-
4bb-_
=657
4bb-]
4.ff
8ee-
=658
2.ee-
=659
[2.aa-
=660
4aa-_
4aa-]
4ff
=661
4gg
4.ff
8ee-
=662
2.ccc
=663
2ccc
4ccc
=664
[2.ccc
=665
4ccc]
4bb-
4aa-
=666
2.aa-
=667
2.ddd-
=668
2ddd-
4ccc
=669
4ccc
4.bb-
8aa-
=670
2.fff
=671
2fff
4fff
=672
2.fff
=673
4eee-
4ddd-
4bb-
=674
2.ccc
=675
4bb-
4aa-
4ff
=676
4bb-
4aa-
4gg-
=677
4gg-
4.ff
8ee
=678
2.ee
=679
2ff
[4aa-
=680
2.aa-]
=681
4ccc
4.bb-
8aa-
=682
2.aa-
=683
2.ddd-
=684
4.ddd-
8ccc
4ccc
=685
4.ccc
8bb-
4aa-
=686
2.fff
=687
2fff
4fff
=688
2.fff
=689
4eee-
4.ddd-
8bb-
=690
2.ccc
=691
4bb-
4aa-
4bb-
=692
2ccc-
4bb-
=693
[2.ccc-
=694
2ccc-]
4bb-
=695
4ccc-
4bb-
4ccc-
=696
2ccc-
4bb-
=697
[2.ddd-
=698
2ddd-]
4ccc
=699
4ddd-
4ccc
4ddd-
=700
2ddd-
4ccc
=701
2eee-
4eee-
=702
2eee-
4ddd
=703
2fff
4fff
=704
2fff
4eee
=705
2ggg
4ggg
=706
2ggg
4aaa-
=707
2bbb--
4ccc
=708
4ddd-
4r
4r
=709
8f
8dd-
8aa-
8f
8dd-
8bb-
=710
4aa-
4r
4r
=711
8g-
8cc
8aa-
8g-
8cc
8aa-
=712
4ff
4r
4r
=713
8f
8dd-
8aa-
8f
8dd-
8bb-
=714
4aa-
4r
4r
=715
8g-
8cc
8aa-
8g-
8cc
8aa-
=716
*k[f#c#g#]
4ccc#
8bb
8aa
8ee
8cc#
=717
8bb
8aa
8ee
8cc#
8b
8a
=718
8e
8c#
8B
8A
4E
=719
2f
4e
=720
4ccc#
8bb
8aa
8ee
8cc#
=721
8bb
8aa
8ee
8cc#
8b
8a
=722
8e
8c#
8B
8A
4E
=723
2f
4e
=724
*k[b-e-a-d-g-]
4f
8F
8A
8d-
8f
=725
4ff
8F
8A
8d-
8f
=726
4ff
8F
8B-
8d-
8f
=727
4ff
8F
8B-
8d
8f
=728
4ff
8G-
8B-
8d
8g-
=729
4gg-
8G-
8B-
8e-
8g-
=730
4gg-
8G
8d-
8e
8g
=731
4gg
8a-
8dd-
8ff
8aa-
=732
4aaa-
4r
12c
12d-
12f
=733
4a-
4r
12B
12c
12f
=734
4a-
4r
12A
12B-
12f
=735
4a-
4r
4r
=736
4A-
4r
4r
=737
2.aa-[
=738
4aa-]
4aa-
4aa-
=739
4aa-
4aa-
4aa-
=740
4aa-
4r
12c
12d-
12f
=741
4a-
4r
12B
12c
12f
=742
4a-
4r
12A
12B-
12f
=743
4a-
4r
4r
=744
4A-
4r
4r
=745
2.aa-[
=746
4aa-]
4aa-
4aa-
=747
4aa-
4aa-
4aa-
=748
2.aa-
=749
2.aa
=750
2.aa
=751
2.bb-
=752
2.bb-
=753
2.bb
=754
2.bb
=755
2.ccc
=756
4fff
8eee-
8ddd-
8aa-
8ff
=757
8eee-
8ddd-
8aa-
8ff
8ee-
8dd-
=758
8a-
8f
8e-
8d-
4A-
=759
2b--
4a-
=760
4fff
8eee-
8ddd-
8aa-
8ff
=761
8eee-
8ddd-
8aa-
8ff
8ee-
8dd-
=762
8a-
8f
8e-
8d-
4A-
=763
2b--
4a-
=764
4a-
4r
4r
=765
2b--
4a-
=766
4a-
4r
4r
=767
2b--
4a-
=768
4a-
4r
4r
=769
2b--
4a-
=770
4b--
4a-
4b--
=771
4a-
4b--
4a-
=772
4a
4r
4r
=773
4cc
4r
4r
=774
4aa
4r
4r
=775
4aa-
4r
4r
=776
2.ff
=777
2.r
=778
2.f
=779
2.r
=780
2.fff
==
*-
